symbols/web/hide_image/materialsymbolsoutlined/hide_image_wght300gradN25_20px.svg

<svg xmlns="http://www.w3.org/2000/svg" height="20" width="20"><path d="m16.938 14.562-1.25-1.25V4.583q0-.104-.084-.187-.083-.084-.187-.084H6.688l-1.23-1.25h9.959q.645 0 1.083.438.438.438.438 1.083Zm-.271 3.834-1.459-1.458H4.583q-.645 0-1.083-.438-.438-.438-.438-1.083V4.812L1.583 3.333l.875-.895 15.104 15.104ZM5.833 13.854l1.938-2.562 1.604 2.041 1-1.25-6.063-6.062v9.396q0 .104.084.187.083.084.187.084h9.396l-1.833-1.834Zm4.188-3.875Z"/></svg>

<svg xmlns="http://www.w3.org/2000/svg" height="20" width="20"><path d="M16.938 14.562 15.688 13.312V4.583Q15.688 4.479 15.604 4.396Q15.521 4.312 15.417 4.312H6.688L5.458 3.062H15.417Q16.062 3.062 16.5 3.5Q16.938 3.938 16.938 4.583ZM16.667 18.396 15.208 16.938H4.583Q3.938 16.938 3.5 16.5Q3.062 16.062 3.062 15.417V4.812L1.583 3.333L2.458 2.438L17.562 17.542ZM5.833 13.854 7.771 11.292 9.375 13.333 10.375 12.083 4.312 6.021V15.417Q4.312 15.521 4.396 15.604Q4.479 15.688 4.583 15.688H13.979L12.146 13.854ZM10.021 9.979Q10.021 9.979 10.021 9.979Q10.021 9.979 10.021 9.979Q10.021 9.979 10.021 9.979Q10.021 9.979 10.021 9.979Z"/></svg>
